packages/sights/assets/overlays/UHZkpCuK.svg

<svg width="500" height="375" viewBox="0 0 500 375" fill="none" xmlns="http://www.w3.org/2000/svg">
<path d="M8.12109 117.78C8.12109 117.78 67.9711 110.68 71.6411 111.59C71.6411 111.59 101.231 95.5898 106.051 94.5898" stroke="white" stroke-miterlimit="10"/>
<path d="M134.92 79.2602C134.92 79.2602 203.25 49.2602 218.39 48.3102C218.39 48.3102 322.24 30.6502 492.96 54.5002" stroke="white" stroke-miterlimit="10"/>
<path d="M7 204.46C7 204.46 33.38 226.7 33.61 276.69L38.61 297.78H459.61L465.34 270.78C465.34 270.78 468.78 224.46 494.01 208.64" stroke="white" stroke-miterlimit="10"/>
<path d="M40 297.78C40 297.78 29.73 326 7 337.61" stroke="white" stroke-miterlimit="10"/>
<path d="M459.609 297.78C459.609 297.78 468.169 325.38 494.009 339.13" stroke="white" stroke-miterlimit="10"/>
<path d="M7 187.5C7 187.5 38 207.67 43.51 253.83L454.8 245.27C454.8 245.27 465.42 199.11 494 186" stroke="white" stroke-miterlimit="10"/>
<path d="M108.31 103.65C108.31 103.65 109.62 111.44 85.85 112.59L78.75 120.19L124 117.78V113.78L130.88 112.4C133.63 106.21 134.88 74.9103 134.88 74.9103L132.13 74.1104L113.44 79.8403C113.44 79.8403 104.85 88.8403 106.11 97.1603C106.693 99.4671 107.448 101.726 108.37 103.92" stroke="white" stroke-miterlimit="10"/>
<path d="M132.169 87.2296C132.169 87.2296 106.429 85.2296 109.989 108.5C109.989 108.5 109.239 117.89 89.6387 119.61" stroke="white" stroke-miterlimit="10"/>
<path d="M85.8496 112.59C85.8496 112.59 101.85 101.89 106.85 100.05" stroke="white" stroke-miterlimit="10"/>
<path d="M134.92 85.3401C134.92 85.3401 199.36 52.2001 226.64 50.1401C226.64 50.1401 330.64 40.4301 437.9 52.6601L494 95.1601" stroke="white" stroke-miterlimit="10"/>
<path d="M124 117.78C124 117.78 404.33 101.4 493 103.4" stroke="white" stroke-miterlimit="10"/>
<path d="M316.999 46.4902V50.0602L308.509 108.31L304.919 133.68C304.919 133.68 299.719 210.11 302.779 223.87L296.669 244.36C296.669 244.36 296.359 266.36 296.669 274.36C296.669 274.36 298.809 294.08 299.669 297.82" stroke="white" stroke-miterlimit="10"/>
<path d="M78.7494 120.19L73.3594 122.83L62.2394 144.38C62.2394 144.38 50.3094 211.8 55.3594 247.38L55.4294 253.19" stroke="white" stroke-miterlimit="10"/>
<path d="M256.371 151.38C256.371 151.38 246.191 150.6 245.131 149.89C245.131 149.89 242.461 145.44 246.191 143.89C246.191 143.89 260.641 136.09 296.241 141.48L297.001 142.38L296.851 147.99L294.321 149.1L281.641 151.17C281.641 151.17 280.991 148.76 279.041 148.17L259.151 148.74C258.511 148.929 257.926 149.266 257.443 149.725C256.959 150.184 256.592 150.751 256.371 151.38Z" stroke="white" stroke-miterlimit="10"/>
</svg>

<svg width="500" height="375" fill="none" xmlns="http://www.w3.org/2000/svg"><path d="M8.121 117.78s59.85-7.1 63.52-6.19c0 0 29.59-16 34.41-17M134.92 79.26s68.33-30 83.47-30.95c0 0 103.85-17.66 274.57 6.19M7 204.46s26.38 22.24 26.61 72.23l5 21.09h421l5.73-27s3.44-46.32 28.67-62.14M40 297.78S29.73 326 7 337.61M459.609 297.78s8.56 27.6 34.4 41.35" stroke="#fff" stroke-miterlimit="10"/><path d="M7 187.5s31 20.17 36.51 66.33l411.29-8.56S465.42 199.11 494 186M108.31 103.65s1.31 7.79-22.46 8.94l-7.1 7.6 45.25-2.41v-4l6.88-1.38c2.75-6.19 4-37.49 4-37.49l-2.75-.8-18.69 5.73s-8.59 9-7.33 17.32a47.464 47.464 0 0 0 2.26 6.76" stroke="#fff" stroke-miterlimit="10"/><path d="M132.169 87.23s-25.74-2-22.18 21.27c0 0-.75 9.39-20.35 11.11" stroke="#fff" stroke-miterlimit="10"/><path d="M85.85 112.59s16-10.7 21-12.54M134.92 85.34s64.44-33.14 91.72-35.2c0 0 104-9.71 211.26 2.52l56.1 42.5M124 117.78s280.33-16.38 369-14.38" stroke="#fff" stroke-miterlimit="10"/><path d="M316.999 46.49v3.57l-8.49 58.25-3.59 25.37s-5.2 76.43-2.14 90.19l-6.11 20.49s-.31 22 0 30c0 0 2.14 19.72 3 23.46M78.75 120.19l-5.39 2.64-11.12 21.55s-11.93 67.42-6.88 103l.07 5.81M256.371 151.38s-10.18-.78-11.24-1.49c0 0-2.67-4.45 1.06-6 0 0 14.45-7.8 50.05-2.41l.76.9-.15 5.61-2.53 1.11-12.68 2.07s-.65-2.41-2.6-3l-19.89.57a4.208 4.208 0 0 0-2.78 2.64Z" stroke="#fff" stroke-miterlimit="10"/></svg>
